X:1
T:5 Gedichte für eine Frauenstimme
T:Schmerzen
T:4. Schmerzen
T:Richard Wagner
T:Mathilde Wesendonck
T:Fünf Gedichte für eine Frauenstimme (Wesendonck-Lieder), WWV 91
T:OpenScore (CC0)
T:OpenScore (CC0)
T:OpenScore (CC0)
C:Richard Wagner
Z:Mathilde Wesendonck
Z:OpenScore (CC0)
%%score 1 { ( 2 4 7 ) | ( 3 5 6 ) }
L:1/8
Q:1/4=70
M:4/4
K:Eb
V:1 treble nm="Voice"
V:2 treble nm="Piano"
V:4 treble 
V:7 treble 
V:3 bass 
V:5 bass 
V:6 bass 
V:1
"^Langsam und breit" z8 | z8 | z4 d3 c | B3/2 A/ G3/2 F/ E3/2 D/ E F | G3/2 C/ E4 D2 | %5
w: ||Son- ne|wei- nest je- den A- bend dir die|schö- nen Au- gen|
 C2 D E F3/2 G/ A3/2 B/ | c A E3/2 C/ D3/2 D/ B =A | G4 z2 G G | _A3/2 B/ c3/2 d/ e z a2- | %9
w: rot, wenn im Mee- res- spie- gel|ba- dend dich er- reicht der frü- he|Tod; doch er-|stehst in al- ter Pracht, Glo-|
 a/ e/ c/ B/ A3/2 G/ G2 F F | f3/2 e/ d3/2 c/ B2 c c | f3/2 B/ d4 c2 | B2 z2 z4 | z4 d3 c | %14
w: * ri- e der düst- ren Welt, du am|Mor- gen neu er- wacht, wie ein|stol- zer Sie- ges-|held!|Ach, wie|
 B3/2 A/ G F E3/2 D/ E F | G3/2 C/ E D C2 F F | e3/2 _d/ c B A3/2 G/ A B | c3/2 F/ A G F2 z2 | %18
w: soll- te ich da kla- gen, wie, mein|Herz, so schwer dich sehn, muss die|Son- ne selbst ver- za- gen, muss die|Son- ne un- ter- gehn?|
 z2 E3/2 E/ E3 A | _c2 F2 _d3/2 _G/ G G | %20
w: und ge- bie- ret|Tod nur Le- ben, ge- ben|
"^(mit grosser Steigerung)" _c3[Q:1/4=67]"^T" c (e[Q:1/4=65]"^T" =d2) _d | %21
w: Schmer- zen Won- * nen|
"^sehr breit"[Q:1/4=60]"^T" =c2[Q:1/4=55]"^T" z2 g3 f | %22
w: nur: O, wie|
[Q:1/4=70]"^a tempo" e3/2 _d/ c3/2 B/ A3/2 G/ F3/2 f/ | f3 A c3 B | A4 z4 | z8 || %26
w: dank' ich, dass ge- ge- ben sol- che|Schmer- zen mir Na-|tur!||
[K:C] z8[Q:1/4=64]"^T"[Q:1/4=58]"^T" |[Q:1/4=70]"^a tempo" z8 | z8 | z8 | z8 |] %31
w: |||||
V:2
!f! ([dgd']3"_dim." [cc'] [Bb]>[Aa][Gg]>[Ff]) | ([Ee]>[Dd][Ee]>[Ff] [Gcg]2) z2 | %2
!p! [=B,DG]2 z2!f!!>(! ([Dd]3 [Cc]!>)! |"_dim." B>AG>F!p! E>DEF | [CEG]4 E2 D2 | %5
 C4)!<(! (!arpeggio![A,_DFA]4!<)! |!>(! [CEAc]4!>)! [B,=DGB]2 [CD^F]2) | %7
!p! [B,DG][B,DG][B,DG][B,DG] [B,DG][B,DG][B,DG][B,DG] | %8
"_cresc." [_A,CF_A][A,CFA][A,CFA][A,CFA] [A,CEA][A,CEA][A,CEA][A,CEA] | %9
 [CEAc][CEAc][CEAc][CEAc] [CEGc][CEGc][CEFc][CEFc] | %10
 [EF=Ace][EFAce][EFAce][EFAce] [DGBd][DGBd][=EBc=e][EBce] |!f! [FBdf]4 [=Acef=a]4 | %12
!ff! [fbd'f']4 [DF]7/2 [FB]/ | [Bd]4!p! (d3 c | B>AGF E>DEF | [CEG]2) z2!>(! ([Gcg]3 [Ff]!>)! | %16
 e>_dcB!<(! A>GAB)!<)! | [FAc]2 z2!p!!<(! ([cfc']3 [Bb] | %18
 [Aa]>[Gg]!<)![Ff]!>(![Ee])!>)! ([Beb]3"_cresc." [Aa] | %19
 [_G_g]>[Ff][Ee][_D_d])!>(! ([Aa]3!>)! (([Gg] | %20
 [_G_c_g])) [_Fc_f]2"^poco rallent." [Ece]) ([EAce] [=DAc=d]2 [EB_d]) | %21
 z (3([=EB]/c/=e/) ([GBce]/g/)([Bceg]/c'/)!ff! [gc'g']3 (f |!>(! e>_dc>!>)!B!p! A>G"_cresc."F>f) | %23
 !arpeggio![EAcf]3 z c3 z | %24
 z!<(! ([Ace]/a/) ([cea]/c'/)([eac']/!<)!e'/)!f!!>(! ([ee']3 [_d_d']!>)! | %25
!p! [_c_c']>[Bb]!<(![Aa]!<)![_G_g])!f!!>(! ([_d_d']3 [cc']!>)! || %26
[K:C]!p!!<(! [=A=a]>[^G^g][^F^f][Ee])!<)!"^riten."!f!!>(! ([Bb]3 [Aa]!>)! | %27
"_dim." =g>fe>d!p! c>BA>a) |"_cresc." !arpeggio![Gcea]3 c [Gg]7/2 [Gg]/ | %29
!ff!{/c} [gc'e'g']4"_dim." [EG]7/2 [Gc]/ |!p! [ce]8 |] %31
V:3
 [E,,G,,C,E,]4 [E,A,CE]4 | [F,A,C]4 [G,CE]2 z2 | [G,,G,]2 z2 ([E,G,]4 | [E,A,C]4) [F,,F,]4 | %4
 [G,,G,]4 [G,,F,]4 | [A,,E,]4 (!arpeggio![F,,_D,F,]4 | [A,,,A,,]2 [C,,C,]2 [=D,,=D,]4) | %7
 [G,,B,,D,G,][G,,B,,D,G,][G,,B,,D,G,][G,,B,,D,G,] [G,,B,,D,G,][G,,B,,D,G,][G,,B,,D,G,][G,,B,,D,G,] | %8
 [F,,F,][F,,F,][F,,F,][F,,F,] [C,,C,][C,,C,][C,,C,][C,,C,] | %9
!ped! z [C,E,A,][C,E,A,][C,E,A,]!ped-up! [=A,,C,E,=A,][A,,C,E,A,][A,,C,E,A,][A,,C,E,A,] | %10
 [F,,=A,,C,F,][F,,A,,C,F,][F,,A,,C,F,][F,,A,,C,F,] [G,,B,,G,][G,,B,,G,][_G,,B,,_G,][G,,B,,G,] | %11
 [F,,B,,D,F,]4 [F,,=A,,C,E,F,]4 | [B,,,B,,]4 B,7/2 D/ | F4 z (G, C2) | %14
 z (C- [A,C]2) z (A,- [A,C]2) | z (G,- [G,=B,]2)"^dolce" z (C, [A,C]2) | %16
 z (F, [A,_D]2) z (F, [B,D]2) | z (A, [B,=E]2) z (F, [F,A,]2) | z (B, [G,_D]2) z (E, [E,_G,]2) | %19
 z A, [F,_C]2 z (_D, [D,_G,]2) | [A,,_F,A,]2 [_G,,_G,]2 [=F,,=F,]2 [G,,G,]2 | %21
!ped! z [=C,E,G,B,=C][E,G,B,C=E][G,B,CEG]!ped-up!!ped! z (C [A,CFA]2)!ped-up! | %22
 [A,,_D,F,A,]2 [B,,G,]2 [C,B,]2 [_D,A,B,]2 | !arpeggio![E,A,C]3 z !arpeggio![E,,G,]3 z | %24
 z [A,,C,E,A,][C,E,A,C][E,A,CE] (E3 _D) | z ((_D- [B,D_F]2)) (_D3 C) || %26
[K:C] z ((B,- [^G,B,D]2)) z (E,- [E,A,CE]2) | ([C,F,A,C]2 [D,B,]2 [E,D]2 [F,CD]2) | %28
 !arpeggio![G,,G,CE]4 !arpeggio![G,,D,B,]4 | [C,,G,,C,]4 C7/2 E/ |!ped! G8!ped-up! |] %31
V:4
 x8 | x8 | x4 G4 | E4 [A,C]4 | x4 =B,4 | x8 | x8 | x8 | x8 | x8 | x8 | x8 | x8 | x4 G4 | z2 E2 x4 | %15
 x8 | F4 _D2 F2 | x8 | _d4 x4 | _c4 _d4 | x8 | x8 | [FA]2 [_DF]2 =E2 F2 | x4 !arpeggio![_DEG]3 x | %24
 x4 a4 | _f4 _g4 ||[K:C] =d4 e4 | [Ac]2 [FA]2 ^G2 A2 | x4 [FB]4 | x8 | x8 |] %31
V:5
 x8 | x8 | x8 | x8 | x8 | x8 | x8 | x8 | x8 | [A,,,A,,]4 x4 | x8 | x8 | x8 | x4 E,4 | E,4 F,4 | %15
 G,,4 A,,4 | A,,4 B,,4 | C,4 (_D,2 =D,2 | [E,,E,]4) (_C,2 =C,2 | [_D,,_D,]4) (__B,,2 _B,,2 | x8 | %21
 [=G,,=G,]4) [A,,A,]4 | x8 | x8 | x4 A,4 | [_G,,_G,]4 (_G,4 ||[K:C] [=E,,=E,]4) [C,,C,]4 | x8 | %28
 x8 | x8 | x8 |] %31
V:6
 x8 | x8 | x8 | x8 | x8 | x8 | x8 | x8 | x8 | x8 | x8 | x8 | x8 | x8 | x8 | x8 | x8 | x8 | x8 | %19
 x8 | x8 | x8 | x8 | x8 | x4 (_F,2 =F,2) | x4 =D,2 E,2 ||[K:C] x8 | x8 | x8 | x8 | x8 |] %31
V:7
 x8 | x8 | x8 | x8 | x8 | x8 | x8 | x8 | x8 | x8 | x8 | x8 | x8 | x8 | x8 | x8 | x8 | x8 | x8 | %19
 x8 | x8 | x8 | x8 | x8 | x8 | x8 ||[K:C] x8 | x8 | x4 (e2 d2) | x8 | x8 |] %31

